X:1
T:Sonata
T:Sonata
T:K. 35
T:Domenico Scarlatti
C:Domenico Scarlatti
%%score { ( 1 3 ) | ( 2 4 ) }
L:1/8
Q:1/4=90
M:4/4
K:Bb
V:1 treble nm="Piano" snm="Pno."
V:3 treble 
V:2 bass 
V:4 bass 
V:1
"^Allegro"!mf! z/ d/c/d/ | Bc/d/ G/d/=e/^f/ g/f/g/a/ g/b/a/g/ |!mf! ^f2 z2 z/ d/c/d/ B/c/d/B/ | %3
 G/g/!courtesy!=f/g/ d/f/e/d/ e2 z2 | z/ c/B/c/ A/B/c/A/ F/f/e/f/ c/e/d/c/ | %5
 d2 z2 z/ B/A/B/ G/A/B/G/ | E/e/d/e/ B/d/c/B/ c2 z2 | z/ A/G/A/ ^F/G/A/F/ D/d/c/d/ A/c/B/A/ | %8
 Be/d/ c/B/A/G/ ^F2!mp!"^non legato" GF | GABc dedc | BA z A BA z A | BA z A B2 cG | %12
 ^F2!f!"_legato" d2- d2 c2- | c2 B2- B2 A2- | A2 G2- G2 F2- | F2 =E2 F/G/F/D/ G/A/G/D/ | %16
 A/B/A/D/ B/c/B/D/ ^c=B/c/ AB/c/ | d/=e/d/A/ e/f/e/A/ f/g/f/A/ g/a/g/A/ | %18
 ab/a/ g/f/=e/d/ ^c=B/A/ dG | F/A/d/F/ =E/d/E/^c/ D2 |!mf! z/ A/G/A/ | %21
 FG/A/ D/A/=B/^c/ d/c/d/=e/ d/f/e/d/ | ^c2 z2 z/ A/G/A/ F/G/A/F/ | %23
 D/d/!courtesy!=c/d/ A/c/B/A/ B2 z2 | z/ G/F/G/ =E/F/G/E/ C/c/B/c/ G/B/A/G/ | %25
 A/f/e/f/ c/e/d/c/!>(! dc/d/ B2!>)! |!p! f/B/A/B/ f/B/A/B/ g/B/A/B/ f/B/A/B/ | %27
 g2 z2"_cresc." g/c/=B/c/ g/c/B/c/ | a/c/=B/c/ g/c/B/c/ a2 z2 | %29
 a/d/^c/d/ a/d/c/d/ b/d/c/d/ a/d/c/d/ | b2 z2!mf! e/g/f/e/ A2 | d/f/e/d/ G2 c/e/d/c/ F2 | %32
 B/d/c/B/ =E2 A/c/B/A/ d/f/!courtesy!_e/d/ | g/b/a/g/ a/c'/b/a/ ba/g/ .f.e | %34
"^non legato" d/b/d/b/ c/a/c/a/ B2 z d | cB/A/ BG ^FD z d | %36
 e/!courtesy!=f/d/e/ c/d/B/c/ A/f/e/f/ c/f/e/f/ | d/e/c/d/ B/c/A/B/ G/e/d/e/ B/e/d/e/ | %38
 c/d/B/c/ A/B/G/A/ ^F=E/F/ DE/F/ |"_cresc." G/A/G/D/ A/B/A/D/ B/c/B/D/ c/d/c/D/ | %40
 de/d/ c/B/A/G/!f! ^f=e/d/ gc | B/d/g/B/ A/g/^f/A/[Q:1/4=60] G2 |] %42
V:2
 z2 |!mp! [G,,G,]2 z2 G,,A,,B,,C, | D,/D/C/D/ B,/C/D/B,/ G,2 z2 | G,2 B,2 C,/C/B,/C/ A,/B,/C/A,/ | %4
 F,2 z2 F,2 A,2 | B,,/B,/A,/B,/ G,/A,/B,/G,/ E,2 z2 | E,2 G,2 A,,/A,/G,/A,/ ^F,/G,/A,/F,/ | %7
 D,2 z2 D,2 ^F,2 | G,2 z C, D,/D/C/D/!p! B,/D/A,/D/ | G,/D/^F,/D/ G,/D/A,/D/ B,/D/C/D/ B,/D/A,/D/ | %10
 G,/D/^F,/D/ G,/D/F,/D/ G,/D/F,/D/ G,/D/F,/D/ | G,/D/^F,/D/ G,/D/F,/D/ G,/D/G,/D/ E,/C/E,/C/ | %12
 D,/D/C/D/ B,/A,/G,/B,/ C,/C/B,/C/ A,/G,/!courtesy!=F,/A,/ | %13
 B,,/B,/A,/B,/ G,/F,/E,/G,/ A,,/A,/G,/A,/ ^F,/=E,/D,/F,/ | %14
 G,,/G,/^F,/G,/ =E,/D,/C,/E,/ F,,/=F,/E,/F,/ D,/C,/B,,/D,/ | %15
 =E,,/=E,/D,/E,/ ^C,/=B,,/A,,/C,/ D, z E, z | F, z G, z A, z z2 | F, z ^C, z D, z =E, z | %18
 F,2 z G, A,G,F,G, | A,4 z2 | z2 |!mp! [D,,D,]2 z2 D,=E,F,G, | A,,/A,/G,/A,/ F,/G,/A,/F,/ D,2 z2 | %23
 D,2 F,2 G,,/G,/F,/G,/ =E,/F,/G,/E,/ | C,2 z2 C,2 =E,2 | F,2 A,2 B,,3 C, | D,2 z2 E,2 D,2 | %27
 E,/E/D/C/ B,/A,/G,/F,/ =E,2 z2 | F,2 =E,2 F,/F/=E/D/ C/B,/A,/G,/ | F,2 z2 G,2 F,2 | %30
 G,B,/A,/ G,/!courtesy!=F,/E,/D,/ C,2 F,/A,/G,/F,/ | B,,2 E,/G,/F,/E,/ A,,2 D,/F,/E,/D,/ | %32
 G,,2 C,/=E,/D,/C,/ F,,2 B,,2 | !courtesy!_E,2 F,2 G,3 A, | B,B,,F,F,, B,,C,D,B, | %35
 A,^F,G,G,, D,C,B,,G,, | C,2 E,2 !courtesy!=F,2 z2 | B,,2 D,2 E,2 z2 | A,,2 C,2 D,3 C, | %39
 B,,2 ^F,,2 G,,2 A,,2 | B,,2 z C, D,C,B,,C, | D,C,D,D,, !tenuto!.G,!tenuto!.G,, |] %42
V:3
 x2 | x8 | x8 | x8 | x8 | x8 | x8 | x8 | x8 | x8 | x8 | x8 | x4 e4 | d4 c4 | B4 A4 | G4 F x3 | x8 | %17
 x8 | x8 | x6 | x2 | x8 | x8 | x8 | x8 | x8 | x8 | x8 | x8 | x8 | x8 | x8 | x8 | x8 | x8 | x8 | %36
 x8 | x8 | x8 | x8 | x8 | x6 |] %42
V:4
 x2 | x8 | x8 | x8 | x8 | x8 | x8 | x8 | x8 | x8 | x8 | x8 | x8 | x8 | x8 | x8 | x8 | x8 | x8 | %19
 z2 A,,2 !tenuto!.D,!tenuto!.D,, | x2 | x8 | x8 | x8 | x8 | x8 | x8 | x8 | x8 | x8 | x8 | x8 | x8 | %33
 x8 | x8 | x8 | x8 | x8 | x8 | x8 | x8 | x6 |] %42

